X: 418
T:Missa Mi mi / Gloria
N: Derived from Jos9901b-Missa_Mi_mi-Gloria.krn
C: Josquin des Prez
%%abc-version 2.0
%%abcx-abcm2ps-target-version 5.9.1 (29 Sep 2008)
%%abc-creator hum2abc beta
%%abcx-conversion-date 2019/02/12 16:15:55
%%abc-edited-by Jesse Rodin
%%abc-edited-by Jesse Rodin (8/14/2012)
%%abcx-initial-encoding-date 2012/08/14/
%%humdrum-veritas 959244943
%%humdrum-veritas-data 1126929732
%%linebreak <none>
%%barnumbers 0
L: 1/4
M: 4/2
Q: 1/2=120
%%staves [1 2 3 4]
V: 1 clef=treble
V: 2 clef=treble-8
V: 3 clef=bass
V: 4 clef=bass
K: C
[V:1] B4B4 | 
[V:2] e4e4 | 
[V:3] G,4G,4 | 
[V:4] E,4E,4 | 
[V:1] B2B2c2c2 | 
[V:2] e2e2e2e2 | 
[V:3] G,2G,2A,2A,2 | 
[V:4] E,2E,2A,,2A,,2 | 
[V:1] A2A2B4 | 
[V:2] c2c2B4 | 
[V:3] A,2A,2G,4 | 
[V:4] A,,2A,,2E,4 | 
[V:1] E3FG2A2 | 
[V:2] c4B2A2 | 
[V:3] G,2A,2G,2C2 | 
[V:4] C,3D,E,2F,2 | 
[V:1] B2cA2^G/^F/G2 | 
[V:2] G2F2E4 | 
[V:3] B,2A,2B,4 | 
[V:4] G,2A,2E,4 | 
[V:1] A4z2A2 | 
[V:2] z2E2F2EF- | 
[V:3] A,8 | 
[V:4] A,,8 | 
[V:1] G2F2E4 | 
[V:2] FE2DE4 | 
[V:3] z4z2A,2 | 
[V:4] z4z2A,,2 | 
[V:1] z4z2E2 | 
[V:2] z4z2G2 | 
[V:3] G,2F,2E,4 | 
[V:4] C,2D,2E,4 | 
[V:1] F2EF2E2D | 
[V:2] A2A2G2F2 | 
[V:3] z4z2A,2 | 
[V:4] z4z2D,2 | 
[V:1] E4z4 | 
[V:2] E4z2d2 | 
[V:3] B,2B,A,3/G,/C2B, | 
[V:4] G,3F,E,2D,2 | 
[V:1] z2G2A2B2 | 
[V:2] e3dc2Be- | 
[V:3] C4z4 | 
[V:4] C,4z4 | 
[V:1] c2AB3/A/A2^G | 
[V:2] ecdc/B/AcB2 | 
[V:3] z8 | 
[V:4] z8 | 
[V:1] A4z4 | 
[V:2] A4z4 | 
[V:3] z2C3B,/A,/G,A, | 
[V:4] z2A,,4C,2 | 
[V:1] z2A2B3G | 
[V:2] z4z2e2 | 
[V:3] B,2C2B,2G,2 | 
[V:4] B,,2A,,2E,2E,2 | 
[V:1] A2B2c3B/A/ | 
[V:2] A2e2c3d | 
[V:3] C2B,2A,2A,2 | 
[V:4] F,2G,2A,2F,2 | 
[V:1] G2G2A2B2 | 
[V:2] e2e2e2e2 | 
[V:3] B,2B,2C2B,2 | 
[V:4] E,2E,2A,2G,2 | 
[V:1] c2B2A2A2 | 
[V:2] e2e2c2d2 | 
[V:3] A,2G,2A,2A,2 | 
[V:4] A,2E,2F,2F,2 | 
[V:1] G4z2G2 | 
[V:2] e4z2e2 | 
[V:3] B,4z2B,2 | 
[V:4] E,4z2E,2 | 
[V:1] A2B2cA2G | 
[V:2] e2e2c2c2 | 
[V:3] C2B,2A,4 | 
[V:4] A,2G,2F,3E, | 
[V:1] FEE4D2 | 
[V:2] d2e2A4 | 
[V:3] A,2E,2F,2F,2 | 
[V:4] D,2C,2D,4 | 
[V:1] E8 | 
[V:2] A4z2G2- | 
[V:3] E,4z2E,2- | 
[V:4] A,,4z2C,2- | 
[V:1] z8 | 
[V:2] G2G2c2c2 | 
[V:3] E,2D,2E,2F,2 | 
[V:4] C,2B,,2A,,2A,,2 | 
[V:1] z8 | 
[V:2] B2B2c2A2 | 
[V:3] G,2G,3D,F,2 | 
[V:4] G,,2G,,2C,2D,2 | 
[V:1] z8 | 
[V:2] G2G2A2B2 | 
[V:3] E,2G,2F,2G,2 | 
[V:4] E,2E,2F,2E,2 | 
[V:1] z8 | 
[V:2] c2cB2A2^G | 
[V:3] E,2C,G,3/F,/E,2D, | 
[V:4] C,2A,,E,3/D,/C,B,,2 | 
[V:1] z2E3EE2 | 
[V:2] A2c3cc2 | 
[V:3] E,4z4 | 
[V:4] A,,4z4 | 
[V:1] D2C2E2DG- | 
[V:2] B2A2c2B2 | 
[V:3] z8 | 
[V:4] z8 | 
[V:1] G^F/E/F2G4 | 
[V:2] A2A2G4 | 
[V:3] z8 | 
[V:4] z8 | 
[V:1] G4!fermata!A4 | 
[V:2] G4!fermata!c4 | 
[V:3] E,4!fermata!E,4 | 
[V:4] C,4!fermata!A,,4 | 
[V:1] A4!fermata!B4 | 
[V:2] c4!fermata!B4 | 
[V:3] A,4!fermata!G,4 | 
[V:4] A,,4!fermata!E,4 | 
[V:1] z2G3GG2 | 
[V:2] z2B3Bc2 | 
[V:3] z2G,3G,G,2 | 
[V:4] z2E,3E,E,2 | 
[V:1] F2E4E2 | 
[V:2] d2G2G2AA- | 
[V:3] A,2C4C,2 | 
[V:4] D,2C,4A,,2 | 
[V:1] D2D2C3D | 
[V:2] A^G/^F/^G2A3=G/=F/ | 
[V:3] D,2D,2E,2A,2- | 
[V:4] B,,2B,,2A,,3B,, | 
[V:1] EFG3AB2 | 
[V:2] E4z2e2- | 
[V:3] A,2G,2C2B,2 | 
[V:4] C,D,E,3F,G,2 | 
[V:1] c2B2AA2G/F/ | 
[V:2] e2e2c2d2 | 
[V:3] A,2G,2A,4 | 
[V:4] A,2E,2F,4 | 
[V:1] G8 ||  
[V:2] e8 ||  
[V:3] B,8 ||  
[V:4] E,8 ||  
[V:1]  [K:C] [K:clef=treble][M:2/1]G8 | 
[V:2]  [K:C] [K:clef=treble-8][M:2/1]e8 | 
[V:3]  [K:C] [K:clef=bass][M:2/1]E,8 | 
[V:4]  [K:C] [K:clef=bass][M:2/1]z8 | 
[V:1] G4G4 | 
[V:2] e4e4 | 
[V:3] E,4E,4 | 
[V:4] z8 | 
[V:1] A4G4 | 
[V:2] d4e4 | 
[V:3] F,4E,4 | 
[V:4] z8 | 
[V:1] A4B4 | 
[V:2] c2d4cB | 
[V:3] F,4G,4 | 
[V:4] z8 | 
[V:1] c6BA | 
[V:2] A2c4d2 | 
[V:3] A,6G,F, | 
[V:4] z8 | 
[V:1] G4G4 | 
[V:2] e3dc2B2 | 
[V:3] E,4E,4 | 
[V:4] z8 | 
[V:1] A4G2F2- | 
[V:2] A3Bc2d2- | 
[V:3] F,4E,2D,2 | 
[V:4] z8 | 
[V:1] FEE4D2 | 
[V:2] dcB4A2 | 
[V:3] G,4F,4 | 
[V:4] z8 | 
[V:1] E4z2G2 | 
[V:2] B4z2e2 | 
[V:3] E,4z2B,2 | 
[V:4] z4z2E,2 | 
[V:1] G4G4 | 
[V:2] e4e4 | 
[V:3] B,4B,4 | 
[V:4] E,4E,4 | 
[V:1] A4G4 | 
[V:2] e4e4 | 
[V:3] C4B,4 | 
[V:4] A,,4E,4 | 
[V:1] A4F4 | 
[V:2] c4d4 | 
[V:3] A,4A,4 | 
[V:4] F,4F,4 | 
[V:1] G4z2G2- | 
[V:2] e4z2e2- | 
[V:3] B,4z2B,2- | 
[V:4] E,4z2E,2- | 
[V:1] G2G2G4 | 
[V:2] e2e2e4 | 
[V:3] B,2B,2B,4 | 
[V:4] E,2E,2E,4 | 
[V:1] z2G4G2 | 
[V:2] z2e4e2 | 
[V:3] z2B,4B,2 | 
[V:4] z2E,4E,2 | 
[V:1] G4G4 | 
[V:2] e4e4 | 
[V:3] C4C4 | 
[V:4] C,4C,4 | 
[V:1] E4E4 | 
[V:2] c4c4 | 
[V:3] G,4E,4 | 
[V:4] C,4C,4 | 
[V:1] D8 | 
[V:2] A8 | 
[V:3] F,8 | 
[V:4] D,8 | 
[V:1] C4z2c2 | 
[V:2] A4z2A2 | 
[V:3] E,6D,C, | 
[V:4] A,,8 | 
[V:1] c4c4 | 
[V:2] e6dc | 
[V:3] C,8 | 
[V:4] z8 | 
[V:1] B4A4 | 
[V:2] d2e2f4 | 
[V:3] z8 | 
[V:4] z8 | 
[V:1] G4c4 | 
[V:2] e4e4 | 
[V:3] z8 | 
[V:4] z8 | 
[V:1] B2A4GF | 
[V:2] d2c4BA | 
[V:3] z8 | 
[V:4] z8 | 
[V:1] E8 | 
[V:2] G2A4GF | 
[V:3] z4C4 | 
[V:4] z4A,,4 | 
[V:1] z8 | 
[V:2] E8 | 
[V:3] C4C4 | 
[V:4] C,4C,4 | 
[V:1] z8 | 
[V:2] z8 | 
[V:3] B,4A,4 | 
[V:4] D,2E,2F,4 | 
[V:1] z8 | 
[V:2] z8 | 
[V:3] G,4C4 | 
[V:4] E,6F,2 | 
[V:1] z8 | 
[V:2] z8 | 
[V:3] B,2A,4G,F, | 
[V:4] G,2F,4E,D, | 
[V:1] z4E4 | 
[V:2] z4G4 | 
[V:3] E,4E,4 | 
[V:4] C,6C,2 | 
[V:1] E4E4 | 
[V:2] G4G4 | 
[V:3] E,4E,4 | 
[V:4] C,4C,4 | 
[V:1] C8 | 
[V:2] A8 | 
[V:3] E,8 | 
[V:4] A,,8 | 
[V:1] D8 | 
[V:2] B8 | 
[V:3] G,8 | 
[V:4] G,,8 | 
[V:1] E4z2E2- | 
[V:2] G4z2G2 | 
[V:3] E,8 | 
[V:4] C,8- | 
[V:1] E2E2E4 | 
[V:2] c6BA | 
[V:3] z8 | 
[V:4] C,8 | 
[V:1] G4A4 | 
[V:2] B2c4d2- | 
[V:3] z8 | 
[V:4] z8 | 
[V:1] B4c2B2- | 
[V:2] d2e2c2d2 | 
[V:3] z8 | 
[V:4] z8 | 
[V:1] BAA4^G2 | 
[V:2] A2c2B4 | 
[V:3] z4z2B,2 | 
[V:4] z8 | 
[V:1] A4z4 | 
[V:2] A8 | 
[V:3] C6B,A, | 
[V:4] z4A,,4 | 
[V:1] z8 | 
[V:2] z8 | 
[V:3] G,2A,4B,2- | 
[V:4] C,4D,4 | 
[V:1] z8 | 
[V:2] z8 | 
[V:3] B,2C2A,2B,2- | 
[V:4] E,4C,2D,2 | 
[V:1] z8 | 
[V:2] z4B4 | 
[V:3] B,A,A,4^G,2 | 
[V:4] A,,2C,2B,,4 | 
[V:1] z4E4 | 
[V:2] c8 | 
[V:3] A,4A,4 | 
[V:4] A,,4A,,4 | 
[V:1] E4E4 | 
[V:2] c8 | 
[V:3] A,4A,4 | 
[V:4] A,,4A,,4 | 
[V:1] E8 | 
[V:2] c8 | 
[V:3] A,4G,4 | 
[V:4] C,8 | 
[V:1] D4D4 | 
[V:2] A4A4 | 
[V:3] F,8 | 
[V:4] D,4D,4 | 
[V:1] E4z2E2- | 
[V:2] A4z2G2 | 
[V:3] E,4z2C,2- | 
[V:4] A,,4z2C,2- | 
[V:1] E2D2C4 | 
[V:2] G4A4 | 
[V:3] C,2D,2E,2F,2 | 
[V:4] C,2B,,2A,,4 | 
[V:1] B,4B,4 | 
[V:2] D4z2G2- | 
[V:3] G,2F,E,D,4 | 
[V:4] G,,4G,,4 | 
[V:1] C4D2E2- | 
[V:2] G2FED2C2 | 
[V:3] z2G,3F,E,D, | 
[V:4] C,4B,,2C,2- | 
[V:1] EDC4B,2 | 
[V:2] E2F2G4 | 
[V:3] C,4D,4 | 
[V:4] C,B,,A,,2G,,4 | 
[V:1] CDEFG2A2- | 
[V:2] E4z2C2- | 
[V:3] C,3D,E,C,C2- | 
[V:4] z2C,4A,,2- | 
[V:1] A2G4^F2 | 
[V:2] C2D2E2F2 | 
[V:3] C2B,2A,4 | 
[V:4] A,,2B,,2C,2D,2 | 
[V:1] G4z2G2- | 
[V:2] D2E3DC2- | 
[V:3] G,4z2G,2- | 
[V:4] G,,2G,3F,E,2- | 
[V:1] G2FEF4 | 
[V:2] C2c4B2 | 
[V:3] G,2A,4G,F, | 
[V:4] E,2D,C,D,4 | 
[V:1] E3FGEF2- | 
[V:2] c4z2c2- | 
[V:3] G,3A,B,G,A,2- | 
[V:4] C,4z4 | 
[V:1] FEE4D2 | 
[V:2] cde2A3B | 
[V:3] A,2G,2F,4 | 
[V:4] C,4D,4 | 
[V:1] E8- | 
[V:2] c2c4BA | 
[V:3] E,8- | 
[V:4] C,2A,,4G,,F,, | 
[V:1] E8 |]  
[V:2] G3AB4 |]  
[V:3] E,8 |]  
[V:4] E,,8 |]  



